X:1
T:Brae Mare. JJo3.084
T:Brae Mare. JJo3.084
T:Longways for as many as will
C:Longways for as many as will
L:1/8
Q:1/4=100
M:4/4
K:D
V:1 treble 
V:1
 f | d/d/d df d>d de | E/E/E BA BEEf | d/d/d df d>ef>g | a>DE>D F2 E ||"^rest added" z | %6
 F A2 B/c/ dA FD | GB Fd E/E/E BE | F A2 F A>B d>e | fd gf Te2 d2 |] %10

